X:49
T:Coffee
C:Gary Haggerty
M:6/8
R:jig
K:Ador
EAA GAA | cBA eAA | EAA GAA | cBA (A/B/A)A |
EAA GAA | cBA eAA | cBA (A/B/A)A | GED A2G :|
|: A,2C EGA | (c/B/A)A GED | A,2C EGA | (c/B/A)A (A/B/A)A |
A,2C EGA | dcc cAG | dcc cAG | EDE A3 :|

